icons/caret-double-right.svg

<svg width="24" height="25" viewBox="0 0 24 25" fill="none" xmlns="http://www.w3.org/2000/svg">
<path fill-rule="evenodd" clip-rule="evenodd" d="M7.9511 5.41248H15.8281C16.1466 5.41248 16.4961 5.56229 16.7022 5.87144C16.8151 6.04078 16.8861 6.26517 16.8528 6.51472C16.8201 6.76041 16.6967 6.95459 16.5585 7.09281L12.7498 10.9015C12.6795 11.0102 12.5869 11.0968 12.4884 11.1575C12.311 11.2666 12.1316 11.2875 12.0156 11.2875C11.7881 11.2875 11.5137 11.2059 11.3024 10.9974L7.314 7.11122L7.25733 6.99789C7.11009 6.7034 7.10065 6.37272 7.22629 6.07954C7.34549 5.80139 7.56318 5.60644 7.79274 5.49166L7.9511 5.41248ZM9.25944 6.91248L11.9733 9.55671L14.6175 6.91248H9.25944Z" fill="black"/>
<path fill-rule="evenodd" clip-rule="evenodd" d="M7.24489 14.2521C7.41299 13.9159 7.75216 13.7125 8.12822 13.7125H15.8282C16.1467 13.7125 16.4961 13.8623 16.7022 14.1715C16.8151 14.3408 16.8862 14.5652 16.8529 14.8148C16.8201 15.0605 16.6968 15.2546 16.5585 15.3929L12.7498 19.2016C12.6796 19.3103 12.587 19.3969 12.4885 19.4575C12.3111 19.5667 12.1317 19.5875 12.0157 19.5875C11.7865 19.5875 11.5098 19.5047 11.2979 19.2929L7.31183 15.3068L7.2574 15.1979C7.11904 14.9212 7.08572 14.5705 7.24489 14.2521ZM9.33888 15.2125L11.9782 17.8519L14.6176 15.2125H9.33888Z" fill="black"/>
</svg>

<svg xmlns="http://www.w3.org/2000/svg" fill="none" viewBox="0 0 24 25">
  <path fill="#000" fill-rule="evenodd" d="M7.951 5.412h7.877c.319 0 .668.15.874.46a.928.928 0 0 1 .15.643.998.998 0 0 1-.294.578l-3.808 3.809a.835.835 0 0 1-.262.256.902.902 0 0 1-.472.13 1.03 1.03 0 0 1-.714-.29L7.314 7.11l-.057-.113a1.083 1.083 0 0 1-.03-.918c.118-.279.336-.474.566-.588l.158-.08Zm1.308 1.5 2.714 2.645 2.644-2.645H9.26Zm-2.014 7.34a.978.978 0 0 1 .883-.54h7.7c.319 0 .668.15.874.46a.928.928 0 0 1 .15.643.998.998 0 0 1-.294.578l-3.808 3.809a.833.833 0 0 1-.261.255.901.901 0 0 1-.473.13c-.23 0-.506-.082-.718-.294l-3.986-3.986-.055-.11a1.056 1.056 0 0 1-.012-.945Zm2.094.96 2.64 2.64 2.639-2.64h-5.28Z" clip-rule="evenodd"/>
</svg>
